X:1
T:Week your Man's Awa'
M:6/4
L:1/2
K:F
 A D/2 D E/2| G E/2 C A/2| A D/2 D E/2| F/2- E E/2 D| A D/2 D E/2|\
 G E/2 C A/2| A D/2 D E/2| F/2- E/2- E/2 D A/2| A d/2 d e/2| c =B/2 A G/2|\
 A d/2 d e/2| c =B/2 A G/2| A d/2 d e/2| c =B/2 A D/2| D A/2 G E/2|\
 F E/2 D3/2|

